X:1
T:Bonie  Lesley
M:4/4
L:1/8
K:G
 d| BA/2-G/2 GG G2 DE| =F3/2 F/2 FF Ac z d| B3/2 A/2 GG G2 DD| BA/2-B/2c/2-B/2A/2-G/2 B d2|\
e/2-f/2|g/2-f/2e/2-d/2e/2-d/2c/2-B/2 c2 =f=f| Ac =FF A c2 d| BA/2-G/2 AD B- A/2G/2 Ag|\
 fe/2-f/2 gG B d2||
